public/avatar/shoe/55.svg

<svg xmlns:xlink="http://www.w3.org/1999/xlink" height="38.3" width="36.05" xmlns="http://www.w3.org/2000/svg"><use height="19.85" transform="translate(10.7 10.05)" width="20.8" xlink:href="#a"/><defs><g id="a"><path d="M18.15 4.15 19.2 5.6q.7 1 .55 2.15L19.3 10q-.4 1.05-.3 3.9-.4 1.25-2.4 1.55L15.55 15l-.6.9-.2.55q-.65 1.25-3.75 2l-5.8.4q-3-.3-3.45-1.15Q1 16.45 1 13.3q0-1.7 3.65-8.15 2-3.9 7.15-4.15 5.2-.3 6.35 3.15Z" fill="none" stroke="#303030" stroke-linecap="round" stroke-linejoin="round" stroke-width="2"/><path d="M5.05-.65 6.1.8q.7 1 .55 2.15L6.2 5.2q-.4 1.05-.3 3.9-.4 1.25-2.4 1.55l-1.25-1.1-.6 2.1q-.65 1.25-3.75 2l-5.8.4q-3-.3-3.45-1.15-.75-1.25-.75-4.4 0-1.7 3.65-8.15 2-3.9 7.15-4.15 5.2-.3 6.35 3.15" fill="#ebfcff" fill-rule="evenodd" transform="translate(13.1 4.8)"/><path d="M1.2-1q-.25-.9 1-1.25l1.9.05L5.85.3l.65 1.25q.05.65-.9 1.25-2.35 1.55-2.55 2.65l-.35-4Q2.4-1.35 1.2-1" fill="#add7de" fill-rule="evenodd" transform="translate(13.1 4.8)"/><path d="m1.55 12.65 1.75-6.7.2 4.7-1.05-.45-.9 2.45" fill="#303030" fill-rule="evenodd" transform="translate(13.1 4.8)"/><path d="M2.4 6.1q.8-2 2.4-3l1.85-1.05-.7 7q-.25.7-.9 1.1l-1.55.5-.2-3.3L2.25 9.4q-.4.95-.6 2.45-.9 1.5-4.35 2.1-5.35 1-8.5-.7-.9-.5-.9-4.05.35 1.6 4.9 1.6 5 0 7.25-1.5 1.2-.8 2.35-3.2" fill="#a1bcc2" fill-rule="evenodd" transform="translate(13.1 4.8)"/><path d="m3 4.95.2.1q-.15-.85 1.25-2 1.4-1.2 2.35-1Q7.1 3.8 6 7l-.05 2.3q-.3 1.15-1.75 1.2l-.25-3Q3 5.85 3 4.95" fill="#81979c" fill-rule="evenodd" transform="translate(13.1 4.8)"/><path d="M2.25-1.5q-1.15.4-4.3 4.7Q-4.6 6.7-7.4 5.6q-1.55-.55-.85-2.6L-6.9-.15q1.45-3.8 5.7-3.65 1.65.1 3.05 2.15l.4.15" fill="#9e5400" fill-rule="evenodd" transform="translate(13.1 4.8)"/><path d="M1.25-3.6q3.1.85 2.3 2l-2 .1-4.45-2.1q1.05-.8 4.15 0" fill="#9e5400" fill-rule="evenodd" transform="translate(13.1 4.8)"/><path d="m-7.2-.8-4 8" fill="none" stroke="#fff" stroke-linecap="round" stroke-linejoin="round" transform="translate(13.1 4.8)"/><path d="M-1.95 5.6q.65-.1.4 1.45-.2 1.6-1.05 1.75-.85.15-.45-1.45.35-1.55 1.1-1.75" fill="#fff" fill-rule="evenodd" transform="translate(13.1 4.8)"/><path d="M3.3-2.8q1.2.9-1.05 1.3l-1.4.8-3.45.15q-1.85-.2-2.5-1.25-.65-.95.1-1.45Q-3.65-4-1.25-4q2.8 0 4.55 1.2" fill="#693800" fill-rule="evenodd" transform="translate(13.1 4.8)"/><path d="m3.5 5.65-1.45 2.3Q1.1 9.2-.15 9.6L1.8 7.05q1.25-2.05 2-2.1l-.2.6-.1.1" fill="#81979c" fill-rule="evenodd" transform="translate(13.1 4.8)"/><path d="M3.9 11 2.75 9.3l.3-2.1.75-1.25.1 5.05" fill="#303030" fill-rule="evenodd" transform="translate(13.1 4.8)"/><path d="M-2.7 10.65q-.3 1.6.1 3.25l-2.05.15q.05-2.15.4-3.05l1.55-.35" fill="#bfdfe5" fill-rule="evenodd" transform="translate(13.1 4.8)"/></g></defs></svg>

<?xml version="1.0" encoding="UTF-8" standalone="no"?>
<svg xmlns:xlink="http://www.w3.org/1999/xlink" height="38.3px" width="36.05px" xmlns="http://www.w3.org/2000/svg">
  <g transform="matrix(1.0, 0.0, 0.0, 1.0, 23.8, 14.85)">
    <use height="19.85" transform="matrix(1.0, 0.0, 0.0, 1.0, -13.1, -4.8)" width="20.8" xlink:href="#shape0"/>
  </g>
  <defs>
    <g id="shape0" transform="matrix(1.0, 0.0, 0.0, 1.0, 13.1, 4.8)">
      <path d="M5.05 -0.65 L6.1 0.8 Q6.8 1.8 6.65 2.95 L6.2 5.2 Q5.8 6.25 5.9 9.1 5.5 10.35 3.5 10.65 L2.45 10.2 1.85 11.1 1.65 11.65 Q1.0 12.9 -2.1 13.65 L-7.9 14.05 Q-10.9 13.75 -11.35 12.9 -12.1 11.65 -12.1 8.5 -12.1 6.8 -8.45 0.35 -6.45 -3.55 -1.3 -3.8 3.9 -4.1 5.05 -0.65 Z" fill="none" stroke="#303030" stroke-linecap="round" stroke-linejoin="round" stroke-width="2.0"/>
      <path d="M5.05 -0.65 L6.1 0.8 Q6.8 1.8 6.65 2.95 L6.2 5.2 Q5.8 6.25 5.9 9.1 5.5 10.35 3.5 10.65 L2.25 9.55 1.65 11.65 Q1.0 12.9 -2.1 13.65 L-7.9 14.05 Q-10.9 13.75 -11.35 12.9 -12.1 11.65 -12.1 8.5 -12.1 6.8 -8.45 0.35 -6.45 -3.55 -1.3 -3.8 3.9 -4.1 5.05 -0.65" fill="#ebfcff" fill-rule="evenodd" stroke="none"/>
      <path d="M1.2 -1.0 Q0.95 -1.9 2.2 -2.25 L4.1 -2.2 5.85 0.3 6.5 1.55 Q6.55 2.2 5.6 2.8 3.25 4.35 3.05 5.45 L2.7 1.45 Q2.4 -1.35 1.2 -1.0" fill="#add7de" fill-rule="evenodd" stroke="none"/>
      <path d="M1.55 12.65 L3.3 5.95 3.5 10.65 2.45 10.2 1.55 12.65" fill="#303030" fill-rule="evenodd" stroke="none"/>
      <path d="M2.4 6.1 Q3.2 4.1 4.8 3.1 L6.65 2.05 5.95 9.05 Q5.7 9.75 5.05 10.15 L3.5 10.65 3.3 7.35 2.25 9.4 Q1.85 10.35 1.65 11.85 0.75 13.35 -2.7 13.95 -8.05 14.95 -11.2 13.25 -12.1 12.75 -12.1 9.2 -11.75 10.8 -7.2 10.8 -2.2 10.8 0.05 9.3 1.25 8.5 2.4 6.1" fill="#a1bcc2" fill-rule="evenodd" stroke="none"/>
      <path d="M3.0 4.95 L3.2 5.05 Q3.05 4.2 4.45 3.05 5.85 1.85 6.8 2.05 7.1 3.8 6.0 7.0 L5.95 9.3 Q5.65 10.45 4.2 10.5 L3.95 7.5 Q3.0 5.85 3.0 4.95" fill="#81979c" fill-rule="evenodd" stroke="none"/>
      <path d="M2.25 -1.5 Q1.1 -1.1 -2.05 3.2 -4.6 6.7 -7.4 5.6 -8.95 5.05 -8.25 3.0 L-6.9 -0.15 Q-5.45 -3.95 -1.2 -3.8 0.45 -3.7 1.85 -1.65 L2.25 -1.5" fill="#9e5400" fill-rule="evenodd" stroke="none"/>
      <path d="M1.25 -3.6 Q4.35 -2.75 3.55 -1.6 L1.55 -1.5 -2.9 -3.6 Q-1.85 -4.4 1.25 -3.6" fill="#9e5400" fill-rule="evenodd" stroke="none"/>
      <path d="M-7.2 -0.8 L-11.2 7.2" fill="none" stroke="#ffffff" stroke-linecap="round" stroke-linejoin="round" stroke-width="1.0"/>
      <path d="M-1.95 5.6 Q-1.3 5.5 -1.55 7.05 -1.75 8.65 -2.6 8.8 -3.45 8.95 -3.05 7.35 -2.7 5.8 -1.95 5.6" fill="#ffffff" fill-rule="evenodd" stroke="none"/>
      <path d="M3.3 -2.8 Q4.5 -1.9 2.25 -1.5 L0.85 -0.7 -2.6 -0.55 Q-4.45 -0.75 -5.1 -1.8 -5.75 -2.75 -5.0 -3.25 -3.65 -4.0 -1.25 -4.0 1.55 -4.0 3.3 -2.8" fill="#693800" fill-rule="evenodd" stroke="none"/>
      <path d="M3.5 5.65 L2.05 7.95 Q1.1 9.2 -0.15 9.6 L1.8 7.05 Q3.05 5.0 3.8 4.95 L3.6 5.55 3.5 5.65" fill="#81979c" fill-rule="evenodd" stroke="none"/>
      <path d="M3.9 11.0 L2.75 9.3 3.05 7.2 3.8 5.95 3.9 11.0" fill="#303030" fill-rule="evenodd" stroke="none"/>
      <path d="M-2.7 10.65 Q-3.0 12.25 -2.6 13.9 L-4.65 14.05 Q-4.6 11.9 -4.25 11.0 L-2.7 10.65" fill="#bfdfe5" fill-rule="evenodd" stroke="none"/>
    </g>
  </defs>
</svg>
